X:12034
T:Noonday Feast, The
T:Fasten the Leg in Her
R:jig
S:as played by Joe Shannon \& Johnny McGreevy, The Noonday Feast
N:Transcribed by Alan Ng
D:Green Linnet CSIF 1023
Z: id:ng-jigs-13 Transcribed by Alan Ng agng@students.wisc.edu January 1997
E:14
M:6/8
L:1/8
K:G
BdB BAB|GBd gdB|ABA AGA|BeB dBA|BdB BAB|GBd ~g3|\
efg eag|1fd^c d2=c:|2fd^c def|:~g3 fgf|ege dBA|~G3 AGA|\
BeB def|~g3 fgf|ege ~d3|efg eag|1fd^c def:|2fd^c d2=c|]**
